Flat-Remix-Dark/apps/scalable/preferences-system-privacy.svg

<svg xmlns="http://www.w3.org/2000/svg" xmlns:xlink="http://www.w3.org/1999/xlink" width="384pt" height="384pt" version="1.1" viewBox="0 0 384 384">
 <defs>
  <filter id="alpha" width="100%" height="100%" x="0%" y="0%" filterUnits="objectBoundingBox">
   <feColorMatrix in="SourceGraphic" type="matrix" values="0 0 0 0 1 0 0 0 0 1 0 0 0 0 1 0 0 0 1 0"/>
  </filter>
  <mask id="mask0">
   <g filter="url(#alpha)">
    <rect width="384" height="384" x="0" y="0" style="fill:rgb(0%,0%,0%);fill-opacity:0.301961"/>
   </g>
  </mask>
  <clipPath id="clip1">
   <rect width="384" height="384" x="0" y="0"/>
  </clipPath>
  <g id="surface5" clip-path="url(#clip1)">
   <path style="fill:rgb(0%,0%,0%)" d="M 269.125 195.375 C 269.125 237.972656 234.597656 272.503906 192 272.503906 C 149.402344 272.503906 114.871094 237.972656 114.871094 195.375 C 114.871094 152.78125 149.402344 118.25 192 118.25 C 234.597656 118.25 269.125 152.78125 269.125 195.375 Z M 269.125 195.375"/>
  </g>
  <mask id="mask1">
   <g filter="url(#alpha)">
    <rect width="384" height="384" x="0" y="0" style="fill:rgb(0%,0%,0%);fill-opacity:0.501961"/>
   </g>
  </mask>
  <clipPath id="clip2">
   <rect width="384" height="384" x="0" y="0"/>
  </clipPath>
  <g id="surface8" clip-path="url(#clip2)">
   <path style="fill:rgb(17.647059%,17.647059%,17.647059%)" d="M 192 126.648438 C 177.828125 126.65625 164.082031 131.492188 153.03125 140.359375 L 165.347656 155.246094 C 172.9375 149.246094 182.328125 145.980469 192 145.980469 C 215.738281 145.980469 234.980469 165.222656 234.980469 188.960938 C 234.960938 201.425781 229.527344 213.269531 220.09375 221.417969 L 232.40625 236.300781 C 246.28125 224.484375 254.285156 207.1875 254.3125 188.960938 C 254.3125 154.546875 226.414062 126.648438 192 126.648438 Z M 192 126.648438"/>
  </g>
  <mask id="mask2">
   <g filter="url(#alpha)">
    <rect width="384" height="384" x="0" y="0" style="fill:rgb(0%,0%,0%);fill-opacity:0.301961"/>
   </g>
  </mask>
  <linearGradient id="linear0" x1="-44" x2="-24" y1="-24" y2="-24" gradientTransform="matrix(1.137509,-1.154001,-1.154001,-1.137509,191.535681,132.577239)" gradientUnits="userSpaceOnUse">
   <stop offset="0" style="stop-color:rgb(0%,0%,0%);stop-opacity:0"/>
   <stop offset="1" style="stop-color:rgb(0%,0%,0%)"/>
  </linearGradient>
  <clipPath id="clip3">
   <rect width="384" height="384" x="0" y="0"/>
  </clipPath>
  <g id="surface11" clip-path="url(#clip3)">
   <path style="fill:url(#linear0)" d="M 173.335938 169.242188 C 167.734375 174.429688 164.546875 181.71875 164.539062 189.351562 C 164.539062 204.519531 176.832031 216.8125 192 216.8125 C 199.769531 216.800781 207.171875 213.5 212.371094 207.722656 Z M 173.335938 169.242188"/>
  </g>
  <mask id="mask3">
   <g filter="url(#alpha)">
    <rect width="384" height="384" x="0" y="0" style="fill:rgb(0%,0%,0%);fill-opacity:0.301961"/>
   </g>
  </mask>
  <linearGradient id="linear1" x1="-44" x2="-24" y1="-24" y2="-24" gradientTransform="matrix(-1.154001,-1.137509,1.137509,-1.154001,191.535681,132.577239)" gradientUnits="userSpaceOnUse">
   <stop offset="0" style="stop-color:rgb(0%,0%,0%);stop-opacity:0"/>
   <stop offset="1" style="stop-color:rgb(0%,0%,0%)"/>
  </linearGradient>
  <clipPath id="clip4">
   <rect width="384" height="384" x="0" y="0"/>
  </clipPath>
  <g id="surface14" clip-path="url(#clip4)">
   <path style="fill:url(#linear1)" d="M 210.3125 168.925781 L 171.839844 207.957031 C 177.027344 213.59375 184.339844 216.804688 192 216.8125 C 207.167969 216.8125 219.460938 204.519531 219.460938 189.351562 C 219.449219 181.554688 216.125 174.128906 210.3125 168.925781 Z M 210.3125 168.925781"/>
  </g>
  <mask id="mask4">
   <g filter="url(#alpha)">
    <rect width="384" height="384" x="0" y="0" style="fill:rgb(0%,0%,0%);fill-opacity:0.4"/>
   </g>
  </mask>
  <clipPath id="clip5">
   <rect width="384" height="384" x="0" y="0"/>
  </clipPath>
  <g id="surface17" clip-path="url(#clip5)">
   <path style="fill:rgb(100%,100%,100%)" d="M 229.921875 157.6875 C 224.417969 157.6875 219.957031 162.148438 219.957031 167.648438 C 219.957031 173.152344 224.417969 177.613281 229.921875 177.613281 C 235.421875 177.613281 239.882812 173.152344 239.882812 167.648438 C 239.882812 162.148438 235.421875 157.6875 229.921875 157.6875 Z M 211.789062 173.964844 C 208.847656 173.964844 206.460938 176.351562 206.460938 179.292969 C 206.460938 182.234375 208.847656 184.621094 211.789062 184.621094 C 214.730469 184.621094 217.117188 182.234375 217.117188 179.292969 C 217.117188 176.351562 214.730469 173.964844 211.789062 173.964844 Z M 211.789062 173.964844"/>
  </g>
 </defs>
 <g>
  <path style="fill:rgb(82.745098%,18.431373%,18.431373%)" d="M 255.859375 192 C 255.859375 227.269531 227.269531 255.859375 192 255.859375 C 156.730469 255.859375 128.140625 227.269531 128.140625 192 C 128.140625 156.730469 156.730469 128.140625 192 128.140625 C 227.269531 128.140625 255.859375 156.730469 255.859375 192 Z M 255.859375 192"/>
  <path style="fill:rgb(0%,0%,0%);fill-opacity:0.2" d="M 197.804688 110.722656 C 139.75 110.722656 90.171875 146.832031 70.085938 197.804688 C 90.171875 248.777344 139.75 284.886719 197.804688 284.886719 C 255.859375 284.886719 305.4375 248.777344 325.527344 197.804688 C 305.4375 146.832031 255.859375 110.722656 197.804688 110.722656 Z M 197.804688 110.722656"/>
  <path style="fill:rgb(100%,100%,100%);stroke-width:16.448185;stroke-linejoin:round;stroke:rgb(0%,0%,0%)" d="M 253.014396 135.020235 C 174.350283 135.020235 107.173004 183.948759 79.956563 253.014395 C 107.173004 322.080031 174.350283 371.008555 253.014396 371.008555 C 331.678508 371.008555 398.855788 322.080031 426.072229 253.014395 C 398.855788 183.948759 331.678508 135.020235 253.014396 135.020235 Z M 253.014396 135.020235" transform="matrix(0.972241,0,0,0.972241,-53.990948,-53.990947)"/>
  <use mask="url(#mask0)" xlink:href="#surface5"/>
  <path style="fill:rgb(17.647059%,17.647059%,17.647059%)" d="M 256.835938 188.679688 C 256.835938 224.648438 227.675781 253.804688 191.707031 253.804688 C 155.738281 253.804688 126.582031 224.648438 126.582031 188.679688 C 126.582031 152.710938 155.738281 123.550781 191.707031 123.550781 C 227.675781 123.550781 256.835938 152.710938 256.835938 188.679688 Z M 256.835938 188.679688"/>
  <path style="fill:rgb(0%,0%,0%)" d="M 269.125 188.625 C 269.125 231.21875 234.597656 265.75 192 265.75 C 149.402344 265.75 114.871094 231.21875 114.871094 188.625 C 114.871094 146.027344 149.402344 111.496094 192 111.496094 C 234.597656 111.496094 269.125 146.027344 269.125 188.625 Z M 269.125 188.625"/>
  <path style="fill:rgb(83.137255%,10.196078%,10.196078%)" d="M 254.3125 188.625 C 254.3125 223.039062 226.414062 250.9375 192 250.9375 C 157.585938 250.9375 129.6875 223.039062 129.6875 188.625 C 129.6875 154.210938 157.585938 126.3125 192 126.3125 C 226.414062 126.3125 254.3125 154.210938 254.3125 188.625 Z M 254.3125 188.625"/>
  <path style="fill:rgb(0%,0%,0%)" d="M 234.980469 188.625 C 234.980469 212.359375 215.738281 231.605469 192 231.605469 C 168.261719 231.605469 149.019531 212.359375 149.019531 188.625 C 149.019531 164.886719 168.261719 145.644531 192 145.644531 C 215.738281 145.644531 234.980469 164.886719 234.980469 188.625 Z M 234.980469 188.625"/>
  <path style="fill:rgb(83.137255%,10.196078%,10.196078%)" d="M 227.011719 188.625 C 227.011719 207.960938 211.335938 223.636719 192 223.636719 C 172.664062 223.636719 156.984375 207.960938 156.984375 188.625 C 156.984375 169.285156 172.664062 153.609375 192 153.609375 C 211.335938 153.609375 227.011719 169.285156 227.011719 188.625 Z M 227.011719 188.625"/>
  <use mask="url(#mask1)" xlink:href="#surface8"/>
  <use mask="url(#mask2)" xlink:href="#surface11"/>
  <use mask="url(#mask3)" xlink:href="#surface14"/>
  <use mask="url(#mask4)" xlink:href="#surface17"/>
 </g>
</svg>

<svg xmlns="http://www.w3.org/2000/svg" xmlns:xlink="http://www.w3.org/1999/xlink" width="384pt" height="384pt" version="1.1" viewBox="0 0 384 384">
 <defs>
  <filter id="alpha" width="100%" height="100%" x="0%" y="0%" filterUnits="objectBoundingBox">
   <feColorMatrix in="SourceGraphic" type="matrix" values="0 0 0 0 1 0 0 0 0 1 0 0 0 0 1 0 0 0 1 0"/>
  </filter>
  <mask id="mask0">
   <g filter="url(#alpha)">
    <rect width="384" height="384" x="0" y="0" style="fill:rgb(0%,0%,0%);fill-opacity:0.301961"/>
   </g>
  </mask>
  <clipPath id="clip1">
   <rect width="384" height="384" x="0" y="0"/>
  </clipPath>
  <g id="surface5" clip-path="url(#clip1)">
   <path style="fill:rgb(0%,0%,0%)" d="M 269.125 195.375 C 269.125 237.972656 234.597656 272.503906 192 272.503906 C 149.402344 272.503906 114.871094 237.972656 114.871094 195.375 C 114.871094 152.78125 149.402344 118.25 192 118.25 C 234.597656 118.25 269.125 152.78125 269.125 195.375 Z M 269.125 195.375"/>
  </g>
  <mask id="mask1">
   <g filter="url(#alpha)">
    <rect width="384" height="384" x="0" y="0" style="fill:rgb(0%,0%,0%);fill-opacity:0.501961"/>
   </g>
  </mask>
  <clipPath id="clip2">
   <rect width="384" height="384" x="0" y="0"/>
  </clipPath>
  <g id="surface8" clip-path="url(#clip2)">
   <path style="fill:rgb(17.647059%,17.647059%,17.647059%)" d="M 192 126.648438 C 177.828125 126.65625 164.082031 131.492188 153.03125 140.359375 L 165.347656 155.246094 C 172.9375 149.246094 182.328125 145.980469 192 145.980469 C 215.738281 145.980469 234.980469 165.222656 234.980469 188.960938 C 234.960938 201.425781 229.527344 213.269531 220.09375 221.417969 L 232.40625 236.300781 C 246.28125 224.484375 254.285156 207.1875 254.3125 188.960938 C 254.3125 154.546875 226.414062 126.648438 192 126.648438 Z M 192 126.648438"/>
  </g>
  <mask id="mask2">
   <g filter="url(#alpha)">
    <rect width="384" height="384" x="0" y="0" style="fill:rgb(0%,0%,0%);fill-opacity:0.301961"/>
   </g>
  </mask>
  <linearGradient id="linear0" x1="-44" x2="-24" y1="-24" y2="-24" gradientTransform="matrix(1.137509,-1.154001,-1.154001,-1.137509,191.535681,132.577239)" gradientUnits="userSpaceOnUse">
   <stop offset="0" style="stop-color:rgb(0%,0%,0%);stop-opacity:0"/>
   <stop offset="1" style="stop-color:rgb(0%,0%,0%)"/>
  </linearGradient>
  <clipPath id="clip3">
   <rect width="384" height="384" x="0" y="0"/>
  </clipPath>
  <g id="surface11" clip-path="url(#clip3)">
   <path style="fill:url(#linear0)" d="M 173.335938 169.242188 C 167.734375 174.429688 164.546875 181.71875 164.539062 189.351562 C 164.539062 204.519531 176.832031 216.8125 192 216.8125 C 199.769531 216.800781 207.171875 213.5 212.371094 207.722656 Z M 173.335938 169.242188"/>
  </g>
  <mask id="mask3">
   <g filter="url(#alpha)">
    <rect width="384" height="384" x="0" y="0" style="fill:rgb(0%,0%,0%);fill-opacity:0.301961"/>
   </g>
  </mask>
  <linearGradient id="linear1" x1="-44" x2="-24" y1="-24" y2="-24" gradientTransform="matrix(-1.154001,-1.137509,1.137509,-1.154001,191.535681,132.577239)" gradientUnits="userSpaceOnUse">
   <stop offset="0" style="stop-color:rgb(0%,0%,0%);stop-opacity:0"/>
   <stop offset="1" style="stop-color:rgb(0%,0%,0%)"/>
  </linearGradient>
  <clipPath id="clip4">
   <rect width="384" height="384" x="0" y="0"/>
  </clipPath>
  <g id="surface14" clip-path="url(#clip4)">
   <path style="fill:url(#linear1)" d="M 210.3125 168.925781 L 171.839844 207.957031 C 177.027344 213.59375 184.339844 216.804688 192 216.8125 C 207.167969 216.8125 219.460938 204.519531 219.460938 189.351562 C 219.449219 181.554688 216.125 174.128906 210.3125 168.925781 Z M 210.3125 168.925781"/>
  </g>
  <mask id="mask4">
   <g filter="url(#alpha)">
    <rect width="384" height="384" x="0" y="0" style="fill:rgb(0%,0%,0%);fill-opacity:0.4"/>
   </g>
  </mask>
  <clipPath id="clip5">
   <rect width="384" height="384" x="0" y="0"/>
  </clipPath>
  <g id="surface17" clip-path="url(#clip5)">
   <path style="fill:rgb(100%,100%,100%)" d="M 229.921875 157.6875 C 224.417969 157.6875 219.957031 162.148438 219.957031 167.648438 C 219.957031 173.152344 224.417969 177.613281 229.921875 177.613281 C 235.421875 177.613281 239.882812 173.152344 239.882812 167.648438 C 239.882812 162.148438 235.421875 157.6875 229.921875 157.6875 Z M 211.789062 173.964844 C 208.847656 173.964844 206.460938 176.351562 206.460938 179.292969 C 206.460938 182.234375 208.847656 184.621094 211.789062 184.621094 C 214.730469 184.621094 217.117188 182.234375 217.117188 179.292969 C 217.117188 176.351562 214.730469 173.964844 211.789062 173.964844 Z M 211.789062 173.964844"/>
  </g>
 </defs>
 <g transform="matrix(0.95354261,0,0,0.95354261,8.919798,8.9197985)">
  <path style="fill:#d12e2e" d="m 255.85937,192 c 0,35.26953 -28.58984,63.85937 -63.85937,63.85937 -35.26953,0 -63.85938,-28.58984 -63.85938,-63.85937 0,-35.26953 28.58985,-63.85938 63.85938,-63.85938 35.26953,0 63.85937,28.58985 63.85937,63.85938 z m 0,0"/>
  <path style="fill-opacity:0.2" d="m 197.80469,110.72266 c -58.05469,0 -107.632815,36.10937 -127.718752,87.08203 20.085937,50.97265 69.664062,87.08203 127.718752,87.08203 58.05468,0 107.63281,-36.10938 127.72265,-87.08203 -20.08984,-50.97266 -69.66797,-87.08203 -127.72265,-87.08203 z m 0,0"/>
  <path style="fill:#ffffff;stroke:#000000;stroke-width:34.11345673;stroke-linejoin:round" d="m 253.0144,135.02024 c -78.66412,0 -145.8414,48.92852 -173.057837,117.99415 27.216437,69.06564 94.393717,117.99416 173.057837,117.99416 78.66411,0 145.84139,-48.92852 173.05783,-117.99416 C 398.85579,183.94876 331.67851,135.02024 253.0144,135.02024 Z m 0,0" transform="matrix(0.972241,0,0,0.972241,-53.990948,-53.990947)"/>
  <use width="100%" height="100%" x="0" y="0" mask="url(#mask0)" xlink:href="#surface5"/>
  <path style="fill:#2b2b2b" d="m 256.83594,188.67969 c 0,35.96875 -29.16016,65.125 -65.12891,65.125 -35.96875,0 -65.125,-29.15625 -65.125,-65.125 0,-35.96875 29.15625,-65.12891 65.125,-65.12891 35.96875,0 65.12891,29.16016 65.12891,65.12891 z m 0,0"/>
  <path d="m 269.125,188.625 c 0,42.59375 -34.52734,77.125 -77.125,77.125 -42.59766,0 -77.12891,-34.53125 -77.12891,-77.125 0,-42.59766 34.53125,-77.12891 77.12891,-77.12891 42.59766,0 77.125,34.53125 77.125,77.12891 z m 0,0"/>
  <path style="fill:#d41919" d="m 254.3125,188.625 c 0,34.41406 -27.89844,62.3125 -62.3125,62.3125 -34.41406,0 -62.3125,-27.89844 -62.3125,-62.3125 0,-34.41406 27.89844,-62.3125 62.3125,-62.3125 34.41406,0 62.3125,27.89844 62.3125,62.3125 z m 0,0"/>
  <path d="m 234.98047,188.625 c 0,23.73437 -19.24219,42.98047 -42.98047,42.98047 -23.73828,0 -42.98047,-19.2461 -42.98047,-42.98047 0,-23.73828 19.24219,-42.98047 42.98047,-42.98047 23.73828,0 42.98047,19.24219 42.98047,42.98047 z m 0,0"/>
  <path style="fill:#d41919" d="m 227.01172,188.625 c 0,19.33594 -15.67578,35.01172 -35.01172,35.01172 -19.33594,0 -35.01563,-15.67578 -35.01563,-35.01172 0,-19.33984 15.67969,-35.01563 35.01563,-35.01563 19.33594,0 35.01172,15.67579 35.01172,35.01563 z m 0,0"/>
  <use width="100%" height="100%" x="0" y="0" mask="url(#mask1)" xlink:href="#surface8"/>
  <use width="100%" height="100%" x="0" y="0" mask="url(#mask2)" xlink:href="#surface11"/>
  <use width="100%" height="100%" x="0" y="0" mask="url(#mask3)" xlink:href="#surface14"/>
  <use width="100%" height="100%" x="0" y="0" mask="url(#mask4)" xlink:href="#surface17"/>
 </g>
</svg>
